icon-themes/breeze_svg/cmd/sc_pickthrough.svg

<svg viewBox="0 0 16 16" xmlns="http://www.w3.org/2000/svg"><g fill="#4d4d4d"><path d="m7.3945312 2-2.9863281 7.4765625 2.1777344-2.1757813 1.4902344-3.9726562c.0408144.1352689.481655 1.3606123.6484375 1.8398438l.9140625-.9121094-.875-2.2558594zm3.4238278 5.2988281-.9921871.9941407c.0311387.0868378.0207523.0612604.0527343.1503906l.2246098.5566406h-.9843754l-.9980468 1h2.3750002l.228515.59375.904297 2.40625h1.371094l-.90625-2.410156z"/><path d="m13.3125 2-11.3144532 11.294922.7148438.705078 11.2851564-11.3027344z"/></g></svg>

<svg viewBox="0 0 16 16" xmlns="http://www.w3.org/2000/svg">
 <path
   style="fill:#4d4d4d"
   d="M 7.3945312 2 L 4.4082031 9.4765625 L 6.5859375 7.3007812 L 8.0761719 3.328125 C 8.1169863 3.4633939 8.5578269 4.6887373 8.7246094 5.1679688 L 9.6386719 4.2558594 L 8.7636719 2 L 7.3945312 2 z M 10.818359 7.2988281 L 9.8261719 8.2929688 C 9.8573106 8.3798066 9.8469242 8.3542292 9.8789062 8.4433594 L 10.103516 9 L 9.1191406 9 L 8.1210938 10 L 10.496094 10 L 10.724609 10.59375 L 11.628906 13 L 13 13 L 12.09375 10.589844 L 10.818359 7.2988281 z "
   />
<path
   style="fill:#4d4d4d"
   d="M 13.3125,2 1.9980468,13.294922 2.7128906,14 13.998047,2.6972656 Z"
   />
</svg>
